X: 1
T: Le Canal en Octobre
C: Frédéric Paris
R: Schottische
M: 4/4
L: 1/8
K: Gmaj
Z: ABC transcription by Verge Roller
r: 32
|: GA | "G" B2 B2 cBAG | "Em" B2 B2 cBAG | "Am" EFGB "D" A3 G | "D" FGEF D2 GA |
"G" B2 B2 cBAG | "Em" B2 B2 cBAG | "Am" EFGB "D" A2 GF | "G" G6 :|
|: Bc | "G" d2 d2 cBAG | "Bm" d2 d2 cBAG | "C" EFGB "D" A3 G | "D" FGEF D2 Bc |
"G" d2 d2 cBAG | "Bm" d2 d2 cBAG | "C" EFGB "D" A2 GF | "G" G6 :|
